X:1
T:Was Lebet, Was Schwebet, 13.10.13.10
T:Was Lebet, Was Schwebet: Reinhardt Manuscript (Uttinge) 1752
T:O Worship the Lord in the Beauty of Holiness
T:J S B Monsell (1811-1875)
T:O11
T:Public  domain
C:Reinhardt Manuscript (Uttinge
Z:Public  domain
%%score ( 1 2 ) ( 3 4 )
L:1/8
M:3/4
K:C
V:1 treble nm="SA"
V:2 treble 
V:3 bass nm="TB"
V:4 bass 
V:1
 G2 | C2 C2 D2 | E2 E2 G2 | F3 E D2 | E3 E E2 | D2 C2 D2 | E2 ^F2 G2 | G2 A2 ^F2 | G4 | B2 | %10
w: 1.O|Wor- ship the|Lord in the|beau- ty of|Ho- li- ness;|bow down be-|fore him, his|glo- ry pro-|claim;|with|
w: 2.|Low at his|feet lay thy|bur- den of|care- ful- ness:|high on his|heart he wil|bear it for|thee;||
w: 3.|Fear not to|en- ter his|courts in the|slen- der- ness|of the poor|wealth thou wouldst|rec- kon as|thine;||
w: 4.|These, though we|bring them in|trem- bling and|fear- ful- ness,|he will ac-|cept for the|name that is|dear;||
w: 5.O|Wor- ship the|Lord in the|beau- ty of|Ho- li- ness;|bow down be-|fore him, his|glo- ry pro-|claim;|with|
 c2 c2 _B2 | A2 A2 G2 | F2 G2 E2 | D3 D D2 | G2 G2 E2 | A2 B2 c2 | c2 d2 B2 | c4 |] %18
w: gold of o-|be- dience, and|in- cense of|low- li- ness,|kneel and a-|dore him, the|Lord is his|name.|
w: com- fort thy|sor- rows, and|an- swer thy|prare- ful- ness,|gui- ding thy|steps as may|best for thee|be.|
w: truth in its|beau- ty, and|love in its|ten- der- ness,|these are the|of- ferings to|lay on his|shrine.|
w: mor- nings of|joy give for|eve- nings of|tear- ful- ness,|trust for our|trem- bling and|hope for our|fear.|
w: gold of o-|be- dience, and|in- cense of|low- li- ness,|kneel and a-|dore him, the|Lord is his|name.|
V:2
 D2 | G,2 A,2 B,2 | C2 C2 D2 | C3 C B,2 | C3 C C2 | A,B, C2 B,2 | C2 A,2 G,2 | E2 E2 D2 | D4 | D2 | %10
 C2 EF G2 | G2 F2 E2 | D2 D2 C2 | B,3 B, B,2 | C2 D2 C2 | C2 F2 E2 | F2 F2 D2 | E4 |] %18
V:3
 [D,G,]2 | E,2 F,2 F,2 | [C,G,]2 [C,G,]2 [B,,G,]2 | [A,,A,]3 [C,G,] [G,,G,]2 | %4
 [C,G,]3 [C,G,] [C,G,]2 | F,2 [E,G,]2 [D,F,]2 | [C,G,]2 [D,C]2 [E,B,]2 | [C,C]2 [A,,C]2 [D,A,]2 | %8
 [G,B,]4 | G,2 | [E,G,]2 (C,D,) [E,C]2 | [F,C]2 [F,C]2 [C,C]2 | [D,A,]2 [B,,G,]2 [C,G,]2 | %13
 [G,,G,]3 G, [F,G,]2 | [E,G,]2 [B,,G,]2 [C,G,]2 | F,2 [G,D]2 [A,C]2 | [F,A,]2 [D,A,]2 G,2 | %17
 [C,G,]4 |] %18
V:4
 x2 | C,2 F,E, D,2 | x6 | x6 | x6 | F,2 x4 | x6 | x6 | x4 | G,2 | x2 G,2 x2 | x6 | x6 | x3 G, x2 | %14
 x6 | F,2 x4 | x4 G,2 | x4 |] %18

